src/assets/images/icon/loading/loading-reverse.svg

<svg width="40" height="41" viewBox="0 0 40 41" fill="none" xmlns="http://www.w3.org/2000/svg">
<path d="M19.9997 3.8335C19.5576 3.8335 19.1337 4.00909 18.8212 4.32165C18.5086 4.63421 18.333 5.05814 18.333 5.50016V8.8335C18.333 9.27552 18.5086 9.69945 18.8212 10.012C19.1337 10.3246 19.5576 10.5002 19.9997 10.5002C20.4417 10.5002 20.8656 10.3246 21.1782 10.012C21.4907 9.69945 21.6663 9.27552 21.6663 8.8335V5.50016C21.6663 5.05814 21.4907 4.63421 21.1782 4.32165C20.8656 4.00909 20.4417 3.8335 19.9997 3.8335ZM34.9997 18.8335H31.6663C31.2243 18.8335 30.8004 19.0091 30.4878 19.3217C30.1753 19.6342 29.9997 20.0581 29.9997 20.5002C29.9997 20.9422 30.1753 21.3661 30.4878 21.6787C30.8004 21.9912 31.2243 22.1668 31.6663 22.1668H34.9997C35.4417 22.1668 35.8656 21.9912 36.1782 21.6787C36.4907 21.3661 36.6663 20.9422 36.6663 20.5002C36.6663 20.0581 36.4907 19.6342 36.1782 19.3217C35.8656 19.0091 35.4417 18.8335 34.9997 18.8335ZM9.99967 20.5002C9.99967 20.0581 9.82408 19.6342 9.51152 19.3217C9.19896 19.0091 8.77504 18.8335 8.33301 18.8335H4.99967C4.55765 18.8335 4.13372 19.0091 3.82116 19.3217C3.5086 19.6342 3.33301 20.0581 3.33301 20.5002C3.33301 20.9422 3.5086 21.3661 3.82116 21.6787C4.13372 21.9912 4.55765 22.1668 4.99967 22.1668H8.33301C8.77504 22.1668 9.19896 21.9912 9.51152 21.6787C9.82408 21.3661 9.99967 20.9422 9.99967 20.5002ZM10.3663 8.8335C10.0415 8.52629 9.60783 8.36072 9.16087 8.37322C8.71391 8.38573 8.29022 8.57527 7.98301 8.90016C7.6758 9.22505 7.51023 9.65867 7.52274 10.1056C7.53524 10.5526 7.72478 10.9763 8.04967 11.2835L10.4497 13.6002C10.6107 13.7557 10.8015 13.8772 11.0105 13.9573C11.2195 14.0375 11.4426 14.0747 11.6663 14.0668C11.8908 14.066 12.1129 14.0198 12.3191 13.931C12.5253 13.8422 12.7114 13.7127 12.8663 13.5502C13.1768 13.2379 13.351 12.8155 13.351 12.3752C13.351 11.9349 13.1768 11.5124 12.8663 11.2002L10.3663 8.8335ZM28.333 14.0668C28.7621 14.0651 29.174 13.898 29.483 13.6002L31.883 11.2835C32.1758 10.9776 32.3411 10.5717 32.3455 10.1483C32.3499 9.72486 32.1929 9.31566 31.9065 9.00378C31.6201 8.6919 31.2257 8.50074 30.8034 8.46911C30.3812 8.43748 29.9627 8.56776 29.633 8.8335L27.233 11.2002C26.9226 11.5124 26.7484 11.9349 26.7484 12.3752C26.7484 12.8155 26.9226 13.2379 27.233 13.5502C27.5216 13.8547 27.9144 14.0392 28.333 14.0668ZM19.9997 30.5002C19.5576 30.5002 19.1337 30.6758 18.8212 30.9883C18.5086 31.3009 18.333 31.7248 18.333 32.1668V35.5002C18.333 35.9422 18.5086 36.3661 18.8212 36.6787C19.1337 36.9912 19.5576 37.1668 19.9997 37.1668C20.4417 37.1668 20.8656 36.9912 21.1782 36.6787C21.4907 36.3661 21.6663 35.9422 21.6663 35.5002V32.1668C21.6663 31.7248 21.4907 31.3009 21.1782 30.9883C20.8656 30.6758 20.4417 30.5002 19.9997 30.5002ZM29.5497 27.4002C29.2314 27.093 28.8042 26.9248 28.3619 26.9326C27.9196 26.9404 27.4986 27.1236 27.1913 27.4418C26.8841 27.7601 26.7159 28.1874 26.7237 28.6296C26.7316 29.0719 26.9147 29.493 27.233 29.8002L29.633 32.1668C29.942 32.4646 30.3539 32.6318 30.783 32.6335C31.0063 32.6348 31.2276 32.5912 31.4338 32.5053C31.6399 32.4194 31.8267 32.293 31.983 32.1335C32.1392 31.9786 32.2632 31.7942 32.3478 31.5911C32.4324 31.388 32.476 31.1702 32.476 30.9502C32.476 30.7301 32.4324 30.5123 32.3478 30.3092C32.2632 30.1061 32.1392 29.9218 31.983 29.7668L29.5497 27.4002ZM10.4497 27.4002L8.04967 29.7168C7.89346 29.8718 7.76947 30.0561 7.68486 30.2592C7.60024 30.4623 7.55668 30.6801 7.55668 30.9002C7.55668 31.1202 7.60024 31.338 7.68486 31.5411C7.76947 31.7442 7.89346 31.9286 8.04967 32.0835C8.20599 32.243 8.39277 32.3694 8.59891 32.4553C8.80506 32.5412 9.02636 32.5848 9.24967 32.5835C9.66053 32.587 10.0582 32.4386 10.3663 32.1668L12.7663 29.8502C13.0846 29.543 13.2678 29.1219 13.2756 28.6796C13.2834 28.2374 13.1152 27.8101 12.808 27.4918C12.5008 27.1736 12.0797 26.9904 11.6375 26.9826C11.1952 26.9748 10.7679 27.143 10.4497 27.4502V27.4002Z" fill="#9384B7"/>
</svg>

<svg xmlns="http://www.w3.org/2000/svg" width="40" height="41" fill="none"><path fill="#9384B7" d="M20 3.833A1.666 1.666 0 0 0 18.333 5.5v3.334a1.667 1.667 0 1 0 3.333 0V5.5A1.667 1.667 0 0 0 20 3.833Zm15 15h-3.334a1.667 1.667 0 0 0 0 3.334H35a1.667 1.667 0 0 0 0-3.334ZM10 20.5a1.666 1.666 0 0 0-1.667-1.666H5a1.667 1.667 0 1 0 0 3.333h3.333A1.667 1.667 0 0 0 10 20.5Zm.366-11.666a1.686 1.686 0 1 0-2.316 2.45l2.4 2.316a1.665 1.665 0 0 0 1.216.467 1.666 1.666 0 0 0 1.2-.517 1.666 1.666 0 0 0 0-2.35l-2.5-2.366Zm17.967 5.233c.43-.002.841-.169 1.15-.467l2.4-2.316a1.667 1.667 0 0 0-2.25-2.45l-2.4 2.366a1.667 1.667 0 0 0 0 2.35c.289.305.681.49 1.1.517ZM20 30.5a1.667 1.667 0 0 0-1.667 1.667V35.5a1.667 1.667 0 0 0 3.333 0v-3.333A1.667 1.667 0 0 0 20 30.5Zm9.55-3.1a1.668 1.668 0 0 0-2.317 2.4l2.4 2.367a1.667 1.667 0 0 0 2.35-.034 1.666 1.666 0 0 0 0-2.366L29.55 27.4Zm-19.1 0-2.4 2.317a1.667 1.667 0 0 0 0 2.367 1.667 1.667 0 0 0 1.2.5c.41.003.808-.145 1.116-.417l2.4-2.317a1.668 1.668 0 1 0-2.316-2.4v-.05Z"/></svg>
